server/website/public/icons/base/job.svg

<svg width="48" height="48" viewBox="0 0 48 48" fill="none" xmlns="http://www.w3.org/2000/svg">
<g clip-path="url(#clip0_1389_17858)">
<path d="M12.0205 17.5761H9.79829M20.9094 17.5761H18.6872M12.0205 10.9094H9.79829M20.9094 10.9094H18.6872M38.6872 30.9094H36.465M38.6872 22.0205H36.465M28.6872 15.3538V46.4649H37.5761C41.7672 46.4649 43.8605 46.4649 45.1627 45.1627C46.4649 43.8605 46.4649 41.7672 46.4649 37.5761V24.2427C46.4649 20.0516 46.4649 17.9583 45.1627 16.6561C43.8605 15.3538 41.7672 15.3538 37.5761 15.3538H28.6872ZM28.6872 15.3538C28.6872 9.0694 28.6872 5.92495 26.7338 3.97384C24.7827 2.02051 21.6383 2.02051 15.3538 2.02051C9.0694 2.02051 5.92495 2.02051 3.97384 3.97384C2.02051 5.92495 2.02051 9.0694 2.02051 15.3538V19.7983M15.4094 28.5872C15.4223 29.179 15.3169 29.7675 15.0993 30.3181C14.8816 30.8687 14.5562 31.3702 14.1421 31.7933C13.728 32.2163 13.2335 32.5524 12.6877 32.7817C12.1419 33.0111 11.5558 33.129 10.9638 33.1287C10.3718 33.1284 9.78579 33.0099 9.24023 32.78C8.69467 32.5501 8.20053 32.2136 7.78683 31.7901C7.37313 31.3666 7.0482 30.8647 6.83113 30.314C6.61405 29.7632 6.5092 29.1746 6.52273 28.5827C6.54928 27.4215 7.02937 26.3168 7.86023 25.5051C8.69109 24.6934 9.8067 24.2393 10.9682 24.2399C12.1298 24.2404 13.2449 24.6957 14.075 25.5082C14.905 26.3207 15.384 27.4259 15.4094 28.5872ZM2.17606 42.4872C4.52717 38.8694 8.26273 37.5138 10.965 37.5161C13.6672 37.5183 17.2916 38.8694 19.645 42.4872C19.7961 42.7205 19.8383 43.0094 19.7005 43.2516C19.1516 44.2272 17.4427 46.1627 16.2116 46.2916C14.7916 46.4427 11.085 46.4649 10.9672 46.4649C10.8494 46.4649 7.02717 46.4427 5.61162 46.2916C4.37606 46.1605 2.6694 44.2272 2.11829 43.2516C2.05646 43.1313 2.02913 42.9962 2.03933 42.8612C2.04953 42.7263 2.09685 42.5969 2.17606 42.4872Z" stroke="black" stroke-width="2.97" stroke-linecap="round" stroke-linejoin="round"/>
</g>
<defs>
<clipPath id="clip0_1389_17858">
<rect width="48" height="48" fill="white"/>
</clipPath>
</defs>
</svg>

<svg width="48" height="48" fill="none" xmlns="http://www.w3.org/2000/svg"><g clip-path="url(#prefix__clip0_1389_17858)"><path d="M12.02 17.576H9.799m11.111 0h-2.222M12.02 10.91H9.799m11.111 0h-2.222m20 20h-2.222m2.222-8.889h-2.222m-7.778-6.666v31.11h8.89c4.19 0 6.284 0 7.586-1.301 1.302-1.302 1.302-3.396 1.302-7.587V24.243c0-4.191 0-6.285-1.302-7.587-1.302-1.302-3.396-1.302-7.587-1.302h-8.889zm0 0c0-6.285 0-9.43-1.953-11.38-1.951-1.953-5.096-1.953-11.38-1.953-6.285 0-9.43 0-11.38 1.953C2.02 5.924 2.02 9.069 2.02 15.354v4.444m13.388 8.79a4.446 4.446 0 01-7.622 3.202 4.445 4.445 0 117.622-3.203zm-13.233 13.9c2.351-3.619 6.087-4.974 8.789-4.972 2.702.002 6.327 1.353 8.68 4.971.151.233.193.522.056.765-.55.975-2.258 2.91-3.49 3.04-1.42.15-5.126.173-5.244.173-.118 0-3.94-.022-5.355-.173-1.236-.132-2.943-2.065-3.494-3.04a.733.733 0 01.058-.765z" stroke="#000" stroke-width="2.97" stroke-linecap="round" stroke-linejoin="round"/></g><defs><clipPath id="prefix__clip0_1389_17858"><path fill="#fff" d="M0 0h48v48H0z"/></clipPath></defs></svg>
